src/images/logo_full.svg

<svg width="154" height="28" viewBox="0 0 154 28" fill="none" xmlns="http://www.w3.org/2000/svg">
<path fill-rule="evenodd" clip-rule="evenodd" d="M53.9827 21.0231H55.9812V18.5217H54.2575C52.6838 18.5217 51.9843 17.9463 51.9843 16.6956V10.7172H55.9812V8.26571H51.9843V3.0127H49.3614V8.26571H46.9883V10.7172H49.3614V16.6956C49.3614 19.4972 51.0101 21.0231 53.9827 21.0231ZM64.0816 21.3483C65.8303 21.3483 67.3041 20.6979 68.3783 19.6223V21.0231H71.0012V8.26573H68.3783V9.66658C67.3041 8.59093 65.8303 7.94055 64.0816 7.94055C60.3596 7.94055 57.4868 10.8423 57.4868 14.6444C57.4868 18.4466 60.3596 21.3483 64.0816 21.3483ZM64.3065 18.7968C61.9583 18.7968 60.2347 17.0708 60.2347 14.6444C60.2347 12.218 61.9583 10.4921 64.3065 10.4921C66.7046 10.4921 68.4032 12.2431 68.4032 14.6444C68.4032 17.0458 66.7046 18.7968 64.3065 18.7968ZM76.1187 21.023H73.4957V8.26562H76.1187V9.99167C77.0679 8.79098 78.2919 8.26562 80.1155 8.26562H81.1647V10.7171H80.1155C77.7424 10.7171 76.1187 12.1929 76.1187 14.3942V21.023ZM88.3078 21.3483C90.0564 21.3483 91.5302 20.6979 92.6044 19.6223V21.0231H95.2273V8.26573H92.6044V9.66658C91.5302 8.59093 90.0564 7.94055 88.3078 7.94055C84.5857 7.94055 81.713 10.8423 81.713 14.6444C81.713 18.4466 84.5857 21.3483 88.3078 21.3483ZM88.5326 18.7968C86.1845 18.7968 84.4608 17.0708 84.4608 14.6444C84.4608 12.218 86.1845 10.4921 88.5326 10.4921C90.9307 10.4921 92.6294 12.2431 92.6294 14.6444C92.6294 17.0458 90.9307 18.7968 88.5326 18.7968ZM100.345 21.0231H97.7219V8.26573H100.345V9.54151C101.219 8.61593 102.518 7.94055 104.242 7.94055C107.414 7.94055 109.563 10.2919 109.563 13.794V21.0231H106.94V13.869C106.94 11.7928 105.691 10.4921 103.817 10.4921C101.844 10.4921 100.345 11.9679 100.345 13.7689V21.0231ZM117.754 21.0231H119.752V18.5217H118.029C116.455 18.5217 115.756 17.9463 115.756 16.6956V10.7172H119.752V8.26571H115.756V3.0127H113.133V8.26571H110.759V10.7172H113.133V16.6956C113.133 19.4972 114.781 21.0231 117.754 21.0231ZM134.344 14.6445C134.344 18.3966 131.322 21.3483 127.525 21.3483C123.728 21.3483 120.704 18.3966 120.704 14.6445C120.704 10.8923 123.728 7.94055 127.525 7.94055C131.322 7.94055 134.344 10.8923 134.344 14.6445ZM123.453 14.6445C123.453 17.0458 125.176 18.7968 127.525 18.7968C129.873 18.7968 131.596 17.0458 131.596 14.6445C131.596 12.2431 129.873 10.4921 127.525 10.4921C125.176 10.4921 123.453 12.2431 123.453 14.6445ZM142.673 21.3483C146.47 21.3483 149.494 18.3966 149.494 14.6445C149.494 10.8923 146.47 7.94055 142.673 7.94055C138.876 7.94055 135.853 10.8923 135.853 14.6445C135.853 18.3966 138.876 21.3483 142.673 21.3483ZM142.673 18.7968C140.325 18.7968 138.601 17.0458 138.601 14.6445C138.601 12.2431 140.325 10.4921 142.673 10.4921C145.021 10.4921 146.746 12.2431 146.746 14.6445C146.746 17.0458 145.021 18.7968 142.673 18.7968ZM154 21.0231H151.377V3.0127H154V21.0231Z" fill="white"/>
<path fill-rule="evenodd" clip-rule="evenodd" d="M18.4901 1.37057C19.4171 1.97605 21.0542 3.39496 22.8113 5.15447C24.5344 6.87996 25.9304 8.48987 26.5541 9.42703C28.4173 12.1523 28.4311 15.7689 26.5949 18.5081C25.9924 19.4354 24.5726 21.0785 22.8113 22.8424C21.0498 24.6062 19.4089 26.0279 18.4828 26.6313C15.7455 28.4711 12.1306 28.4562 9.40821 26.5861C8.47156 25.9599 6.86701 24.5642 5.14749 22.8424C3.39392 21.0863 1.97911 19.4502 1.37243 18.5209C-0.416197 15.8603 -0.456503 12.3682 1.25126 9.66941C1.77288 8.78641 3.26508 7.03949 5.14749 5.15451C7.02987 3.26956 8.77446 1.77532 9.65639 1.25296C12.3495 -0.45595 15.8339 -0.416803 18.4901 1.37057Z" fill="url(#paint0_radial)"/>
<path fill-rule="evenodd" clip-rule="evenodd" d="M30.4732 3.89614C31.2148 4.38052 32.5245 5.51566 33.9301 6.92326C35.3087 8.30366 36.4255 9.59163 36.9244 10.3413C38.4151 12.5216 38.4261 15.4147 36.9571 17.6061C36.4751 18.348 35.3393 19.6624 33.9301 21.0736C32.521 22.4847 31.2083 23.6219 30.4675 24.1047C28.2776 25.5766 25.3856 25.5647 23.2077 24.0686C22.4584 23.5675 21.1748 22.451 19.7992 21.0735C18.3963 19.6688 17.2645 18.3598 16.7792 17.6164C15.3482 15.488 15.3159 12.6943 16.6822 10.5353C17.0995 9.82889 18.2932 8.43128 19.7992 6.92329C21.3051 5.41533 22.7007 4.21994 23.4062 3.80205C25.5607 2.43492 28.3483 2.46624 30.4732 3.89614Z" fill="url(#paint1_radial)"/>
<path fill-rule="evenodd" clip-rule="evenodd" d="M22.2832 4.63232C22.4576 4.80258 22.6338 4.9768 22.8112 5.15449C24.5344 6.87998 25.9304 8.48989 26.5541 9.42704C28.4174 12.1524 28.4311 15.7689 26.5949 18.5081C25.9924 19.4354 24.5726 21.0785 22.8112 22.8424C22.6338 23.02 22.4576 23.1942 22.2832 23.3644C21.5812 22.784 20.7104 21.986 19.7992 21.0735C18.3963 19.6688 17.2645 18.3598 16.7792 17.6164C15.3482 15.488 15.3159 12.6943 16.6822 10.5353C17.0995 9.8289 18.2932 8.43128 19.7992 6.92329C20.7103 6.01088 21.5811 5.2129 22.2832 4.63232Z" fill="#FF0D2A"/>
<defs>
<radialGradient id="paint0_radial" cx="0" cy="0" r="1" gradientUnits="userSpaceOnUse" gradientTransform="translate(28.1719 14.6768) rotate(180) scale(28.3546 28.3933)">
<stop offset="0.373134" stop-color="#FF0D0D" stop-opacity="0.51"/>
<stop offset="1" stop-color="#FF0D2A"/>
</radialGradient>
<radialGradient id="paint1_radial" cx="0" cy="0" r="1" gradientUnits="userSpaceOnUse" gradientTransform="translate(17.2083 13.9436) scale(20.778 20.8063)">
<stop offset="0.329713" stop-color="#FF0000" stop-opacity="0.38"/>
<stop offset="1" stop-color="#FF001F" stop-opacity="0.88"/>
</radialGradient>
</defs>
</svg>

<svg width="154" height="28" fill="none" xmlns="http://www.w3.org/2000/svg"><path fill-rule="evenodd" clip-rule="evenodd" d="M53.983 21.023h1.998v-2.501h-1.723c-1.574 0-2.274-.576-2.274-1.826v-5.979h3.997V8.266h-3.997V3.013h-2.623v5.253h-2.373v2.451h2.373v5.979c0 2.801 1.65 4.327 4.622 4.327zm10.099.325c1.748 0 3.222-.65 4.296-1.726v1.401h2.623V8.266h-2.623v1.4c-1.074-1.075-2.548-1.725-4.296-1.725-3.722 0-6.595 2.901-6.595 6.703 0 3.803 2.873 6.704 6.595 6.704zm.225-2.551c-2.349 0-4.072-1.726-4.072-4.153 0-2.426 1.723-4.152 4.072-4.152 2.398 0 4.096 1.751 4.096 4.152 0 2.402-1.698 4.153-4.097 4.153zm11.812 2.226h-2.623V8.266h2.623v1.726c.949-1.201 2.173-1.726 3.996-1.726h1.05v2.451h-1.05c-2.373 0-3.996 1.476-3.996 3.677v6.629zm12.189.325c1.748 0 3.222-.65 4.296-1.726v1.401h2.623V8.266h-2.623v1.4c-1.074-1.075-2.548-1.725-4.296-1.725-3.722 0-6.595 2.901-6.595 6.703 0 3.803 2.873 6.704 6.595 6.704zm.225-2.551c-2.349 0-4.072-1.726-4.072-4.153 0-2.426 1.724-4.152 4.072-4.152 2.398 0 4.096 1.751 4.096 4.152 0 2.402-1.698 4.153-4.096 4.153zm11.812 2.226h-2.623V8.266h2.623v1.276c.874-.926 2.173-1.601 3.897-1.601 3.172 0 5.321 2.35 5.321 5.853v7.23h-2.623v-7.155c0-2.076-1.249-3.377-3.123-3.377-1.973 0-3.472 1.476-3.472 3.277v7.254zm17.409 0h1.998v-2.501h-1.723c-1.574 0-2.273-.576-2.273-1.826v-5.979h3.996V8.266h-3.996V3.013h-2.623v5.253h-2.373v2.451h2.373v5.979c0 2.801 1.648 4.327 4.621 4.327zm16.59-6.378c0 3.752-3.022 6.703-6.819 6.703s-6.82-2.951-6.82-6.703c0-3.753 3.023-6.704 6.82-6.704s6.819 2.951 6.819 6.704zm-10.891 0c0 2.4 1.723 4.152 4.072 4.152 2.348 0 4.071-1.751 4.071-4.152 0-2.402-1.723-4.153-4.071-4.153-2.349 0-4.072 1.751-4.072 4.152zm19.22 6.703c3.797 0 6.821-2.951 6.821-6.703 0-3.753-3.024-6.704-6.821-6.704-3.797 0-6.82 2.951-6.82 6.704 0 3.752 3.023 6.703 6.82 6.703zm0-2.551c-2.348 0-4.072-1.751-4.072-4.152 0-2.402 1.724-4.153 4.072-4.153s4.073 1.751 4.073 4.152c0 2.402-1.725 4.153-4.073 4.153zM154 21.023h-2.623V3.013H154v18.01z" fill="#fff"/><path fill-rule="evenodd" clip-rule="evenodd" d="M18.49 1.37c.927.606 2.564 2.025 4.321 3.784 1.723 1.726 3.12 3.336 3.743 4.273a8.124 8.124 0 0 1 .04 9.081c-.602.927-2.021 2.57-3.783 4.334-1.761 1.764-3.402 3.186-4.328 3.79a8.095 8.095 0 0 1-9.075-.046c-.936-.626-2.541-2.022-4.26-3.744-1.754-1.756-3.169-3.392-3.776-4.321a8.126 8.126 0 0 1-.12-8.852c.52-.883 2.013-2.63 3.895-4.514 1.883-1.885 3.627-3.38 4.51-3.902a8.096 8.096 0 0 1 8.833.118z" fill="url(#paint0_radial)"/><path fill-rule="evenodd" clip-rule="evenodd" d="M30.473 3.896c.742.485 2.052 1.62 3.457 3.027 1.379 1.38 2.495 2.669 2.994 3.418a6.499 6.499 0 0 1 .033 7.265c-.482.742-1.618 2.056-3.027 3.468-1.409 1.41-2.722 2.548-3.462 3.03a6.476 6.476 0 0 1-7.26-.035c-.75-.502-2.033-1.618-3.409-2.995-1.403-1.405-2.534-2.714-3.02-3.458a6.5 6.5 0 0 1-.097-7.08c.418-.707 1.611-2.105 3.117-3.613s2.902-2.703 3.607-3.121a6.477 6.477 0 0 1 7.067.094z" fill="url(#paint1_radial)"/><path fill-rule="evenodd" clip-rule="evenodd" d="M22.283 4.632c.175.17.35.345.528.522 1.723 1.726 3.12 3.336 3.743 4.273a8.124 8.124 0 0 1 .04 9.081c-.602.927-2.021 2.57-3.783 4.334-.177.178-.353.352-.528.522a36.963 36.963 0 0 1-2.484-2.29c-1.403-1.405-2.534-2.714-3.02-3.458a6.5 6.5 0 0 1-.097-7.08c.418-.707 1.611-2.105 3.117-3.613a36.989 36.989 0 0 1 2.484-2.29z" fill="#FF0D2A"/><defs><radialGradient id="paint0_radial" cx="0" cy="0" r="1" gradientUnits="userSpaceOnUse" gradientTransform="matrix(-28.3546 0 0 -28.3933 28.172 14.677)"><stop offset=".373" stop-color="#FF0D0D" stop-opacity=".51"/><stop offset="1" stop-color="#FF0D2A"/></radialGradient><radialGradient id="paint1_radial" cx="0" cy="0" r="1" gradientUnits="userSpaceOnUse" gradientTransform="matrix(20.778 0 0 20.8063 17.208 13.944)"><stop offset=".33" stop-color="red" stop-opacity=".38"/><stop offset="1" stop-color="#FF001F" stop-opacity=".88"/></radialGradient></defs></svg>
